public/avatar/shoe/93.svg

<svg xmlns:xlink="http://www.w3.org/1999/xlink" height="38.3" width="36.05" xmlns="http://www.w3.org/2000/svg"><use height="17.8" transform="translate(9.75 11.65)" width="23" xlink:href="#a"/><defs><g id="a" fill-rule="evenodd"><path d="M2.9-1.3q2.6.2 4.4 1.15 2 1.05 1.6 4.2-.35 2.7-1.6 4.1-2.25 2.5-7.95 4.9-7.8 3.2-12.25-.25-1.7-1.25-.85-5.5 1-4.95 6.15-7.6 2.55-3.15 5.55-2.85 1.85.1 2.8 1.85H2.9" fill="#231f20" transform="translate(14.05 3.2)"/><path d="M2.45-.3q2.25.2 3.9 1 1.8.9 1.4 3.65-.3 2.25-1.4 3.45Q4.55 9.9-.8 12q-7 2.8-11.05-.2-1.45-1.15-.75-4.7.9-4.3 5.5-6.5 2.35-2.7 5.05-2.5 1.7.1 2.5 1.6h2" fill="#850022" transform="translate(14.05 3.2)"/><path d="M-5.5 3.05v.15q-4.05 8.8-4.65 9.05-.45.1-1.1-.85-.65-1-.6-1.8l3.65-6.65 2.7.1" fill="#540015" transform="translate(14.05 3.2)"/><path d="M1.15 6.55-2 10.2q-1.65 1.55-4.1 2.25-2.45.65-3.9 0-2.05-.9-.3-3.1l6.9-2.9L-.95 4.4q2.4-1.8 3.65-1.7 1.95.25 3.3 3.7-.35 1.9-1.5 1.2-.6-.35-.75-1.65-.15-1.25-.5-1.3-.4-.15-2.1 1.9" fill="#540015" transform="translate(14.05 3.2)"/><path d="M2.25 10.5q2.45-1.8 3.6-4.25 1.8-3.85.7-5.5l.75.7q.75.9.65 2.1-.4 3.55-1.8 4.65l-3.9 2.3" fill="#540015" transform="translate(14.05 3.2)"/><path d="M2.25 1.8Q5.9.55 7.1 2.1q1.05 1.4-1.25 4.6-.4.55-.95-.8L3.8 3.75Q2.15 2.1-2 8.5q-2.6 3.75-7.6 3.05-1.45-.2-.65-2.4.65-1.95 2.2-3.8 3.45-4.3 5-3.45 2.05 1.2 5.3-.1" fill="#e51000" transform="translate(14.05 3.2)"/><path d="m.85.25 3.4.3q.75.3-3.5.85Q1.1.9.85.25" fill="#231f20" transform="translate(14.05 3.2)"/><path d="M-7.55 1.3q2.4-.2 1.3.5-2.85 1.95-4.3 5.4-.75 1.75-.95 3.1-1.2-.05-.7-3.25.8-4.4 4.65-5.75m1.5-1.75 1.25-.9q1.4-.8 2.45-.55Q1.1-1.1 0 .45-.3.9-1.6.2q-1.55-.9-2.2-.9-2.9 1-2.25.25" fill="#e51000" transform="translate(14.05 3.2)"/><path d="M-9.1 9.5q0-1 1.05-1.35l2.7-.4 2.55-.2q.95.2-2.65 1.35-3.65 1.15-3.65.6M-7 6.05q-.6-.35.9-1.3 6.15-.7 5.2-.1L-4.1 5.7l-2.9.35m-4.6 2.55q-.15.65-.15-2.35.35 0 .55.95l-.4 1.4m1.5-3.85q-1.15.75-.2-1.4l1.05.2q-.3.8-.85 1.2" fill="#540015" transform="translate(14.05 3.2)"/><path d="M-1.65-1.15-4.1-1.2l-1.7.5 1.35-.95q1.65-.85 3.05-.4 2.25.7 1.4 2.5-.55-.9-1.65-1.6m9 3.8q.2.75-.7 2.75.35-2.6-1.3-2.95l-6.2.15 2.7-.7q2.1-.7 3.75-.7 1.45 0 1.75 1.45m-11.6-.9q.55-.2 1.5.3Q-4.7 1.7-7.8 5.8q-1.4 1.95-2 3.9l-.2 1.65q-.55 0-.5-.75.25-3.2 3.05-6.2 1.9-2.1 3.2-2.65" fill="#ff8980" transform="translate(14.05 3.2)"/></g></defs></svg>

<?xml version="1.0" encoding="UTF-8" standalone="no"?>
<svg xmlns:xlink="http://www.w3.org/1999/xlink" height="38.3px" width="36.05px" xmlns="http://www.w3.org/2000/svg">
  <g transform="matrix(1.0, 0.0, 0.0, 1.0, 23.8, 14.85)">
    <use height="17.8" transform="matrix(1.0, 0.0, 0.0, 1.0, -14.05, -3.2)" width="23.0" xlink:href="#shape0"/>
  </g>
  <defs>
    <g id="shape0" transform="matrix(1.0, 0.0, 0.0, 1.0, 14.05, 3.2)">
      <path d="M2.9 -1.3 Q5.5 -1.1 7.3 -0.15 9.3 0.9 8.9 4.05 8.55 6.75 7.3 8.15 5.05 10.65 -0.65 13.05 -8.45 16.25 -12.9 12.8 -14.6 11.55 -13.75 7.3 -12.75 2.35 -7.6 -0.3 -5.05 -3.45 -2.05 -3.15 -0.2 -3.05 0.75 -1.3 L2.9 -1.3" fill="#231f20" fill-rule="evenodd" stroke="none"/>
      <path d="M2.45 -0.3 Q4.7 -0.1 6.35 0.7 8.15 1.6 7.75 4.35 7.45 6.6 6.35 7.8 4.55 9.9 -0.8 12.0 -7.8 14.8 -11.85 11.8 -13.3 10.65 -12.6 7.1 -11.7 2.8 -7.1 0.6 -4.75 -2.1 -2.05 -1.9 -0.35 -1.8 0.45 -0.3 L2.45 -0.3" fill="#850022" fill-rule="evenodd" stroke="none"/>
      <path d="M-5.5 3.05 L-5.5 3.2 Q-9.55 12.0 -10.15 12.25 -10.6 12.35 -11.25 11.4 -11.9 10.4 -11.85 9.6 L-8.2 2.95 -5.5 3.05" fill="#540015" fill-rule="evenodd" stroke="none"/>
      <path d="M1.15 6.55 L-2.0 10.2 Q-3.65 11.75 -6.1 12.45 -8.55 13.1 -10.0 12.45 -12.05 11.55 -10.3 9.35 L-3.4 6.45 -0.95 4.4 Q1.45 2.6 2.7 2.7 4.65 2.95 6.0 6.4 5.65 8.3 4.5 7.6 3.9 7.25 3.75 5.95 3.6 4.7 3.25 4.65 2.85 4.5 1.15 6.55" fill="#540015" fill-rule="evenodd" stroke="none"/>
      <path d="M2.25 10.5 Q4.7 8.7 5.85 6.25 7.65 2.4 6.55 0.75 L7.3 1.45 Q8.05 2.35 7.95 3.55 7.55 7.1 6.15 8.2 L2.25 10.5" fill="#540015" fill-rule="evenodd" stroke="none"/>
      <path d="M2.25 1.8 Q5.9 0.55 7.1 2.1 8.15 3.5 5.85 6.7 5.45 7.25 4.9 5.9 L3.8 3.75 Q2.15 2.1 -2.0 8.5 -4.6 12.25 -9.6 11.55 -11.05 11.35 -10.25 9.15 -9.6 7.2 -8.05 5.35 -4.6 1.05 -3.05 1.9 -1.0 3.1 2.25 1.8" fill="#e51000" fill-rule="evenodd" stroke="none"/>
      <path d="M0.85 0.25 L4.25 0.55 Q5.0 0.85 0.75 1.4 1.1 0.9 0.85 0.25" fill="#231f20" fill-rule="evenodd" stroke="none"/>
      <path d="M-7.55 1.3 Q-5.15 1.1 -6.25 1.8 -9.1 3.75 -10.55 7.2 -11.3 8.95 -11.5 10.3 -12.7 10.25 -12.2 7.05 -11.4 2.65 -7.55 1.3" fill="#e51000" fill-rule="evenodd" stroke="none"/>
      <path d="M-6.05 -0.45 L-4.8 -1.35 Q-3.4 -2.15 -2.35 -1.9 1.1 -1.1 0.0 0.45 -0.3 0.9 -1.6 0.2 -3.15 -0.7 -3.8 -0.7 -6.7 0.3 -6.05 -0.45" fill="#e51000" fill-rule="evenodd" stroke="none"/>
      <path d="M-9.1 9.5 Q-9.1 8.5 -8.05 8.15 L-5.35 7.75 -2.8 7.55 Q-1.85 7.75 -5.45 8.9 -9.1 10.05 -9.1 9.5" fill="#540015" fill-rule="evenodd" stroke="none"/>
      <path d="M-7.0 6.05 Q-7.6 5.7 -6.1 4.75 0.05 4.05 -0.9 4.65 L-4.1 5.7 -7.0 6.05" fill="#540015" fill-rule="evenodd" stroke="none"/>
      <path d="M-11.6 8.6 Q-11.75 9.25 -11.75 6.25 -11.4 6.25 -11.2 7.2 L-11.6 8.6" fill="#540015" fill-rule="evenodd" stroke="none"/>
      <path d="M-10.1 4.75 Q-11.25 5.5 -10.3 3.35 L-9.25 3.55 Q-9.55 4.35 -10.1 4.75" fill="#540015" fill-rule="evenodd" stroke="none"/>
      <path d="M-1.65 -1.15 L-4.1 -1.2 -5.8 -0.7 -4.45 -1.65 Q-2.8 -2.5 -1.4 -2.05 0.85 -1.35 0.0 0.45 -0.55 -0.45 -1.65 -1.15" fill="#ff8980" fill-rule="evenodd" stroke="none"/>
      <path d="M7.35 2.65 Q7.55 3.4 6.65 5.4 7.0 2.8 5.35 2.45 L-0.85 2.6 1.85 1.9 Q3.95 1.2 5.6 1.2 7.05 1.2 7.35 2.65" fill="#ff8980" fill-rule="evenodd" stroke="none"/>
      <path d="M-4.25 1.75 Q-3.7 1.55 -2.75 2.05 -4.7 1.7 -7.8 5.8 -9.2 7.75 -9.8 9.7 L-10.0 11.35 Q-10.55 11.35 -10.5 10.6 -10.25 7.4 -7.45 4.4 -5.55 2.3 -4.25 1.75" fill="#ff8980" fill-rule="evenodd" stroke="none"/>
    </g>
  </defs>
</svg>
